icons-rebrand/svg/battery-medium-light.svg

<svg width="32" height="32" viewBox="0 0 32 32" fill="none" xmlns="http://www.w3.org/2000/svg">
<path d="M18 10.5131C17.8674 10.5131 17.7402 10.5657 17.6464 10.6595C17.5527 10.7533 17.5 10.8804 17.5 11.0131V21.0131C17.5 21.1457 17.5527 21.2728 17.6464 21.3666C17.7402 21.4604 17.8674 21.5131 18 21.5131C18.1326 21.5131 18.2598 21.4604 18.3536 21.3666C18.4473 21.2728 18.5 21.1457 18.5 21.0131V11.0131C18.5 10.8804 18.4473 10.7533 18.3536 10.6595C18.2598 10.5657 18.1326 10.5131 18 10.5131ZM22.808 10.5501C22.8841 10.5184 22.9668 10.5061 23.0488 10.5141C23.1308 10.5221 23.2096 10.5503 23.278 10.5962C23.3465 10.642 23.4026 10.704 23.4413 10.7767C23.4801 10.8495 23.5002 10.9307 23.5 11.0131V21.0131C23.5 21.1457 23.4473 21.2728 23.3536 21.3666C23.2598 21.4604 23.1326 21.5131 23 21.5131C22.8674 21.5131 22.7402 21.4604 22.6464 21.3666C22.5527 21.2728 22.5 21.1457 22.5 21.0131V11.0131C22.4998 10.9142 22.529 10.8175 22.5838 10.7353C22.6386 10.653 22.7167 10.5889 22.808 10.5511V10.5501Z" fill="#0F0F0F"/>
<path fill-rule="evenodd" clip-rule="evenodd" d="M11 6.5H25C26.1931 6.50132 27.3369 6.97585 28.1805 7.81948C29.0241 8.66311 29.4987 9.80693 29.5 11V21C29.4987 22.1931 29.0241 23.3369 28.1805 24.1805C27.3369 25.0241 26.1931 25.4987 25 25.5H11C9.80693 25.4987 8.66311 25.0241 7.81948 24.1805C6.97585 23.3369 6.50132 22.1931 6.5 21V19.5H5C4.33712 19.4995 3.70154 19.2359 3.23282 18.7672C2.76409 18.2985 2.50053 17.6629 2.5 17V15C2.50053 14.3371 2.76409 13.7015 3.23282 13.2328C3.70154 12.7641 4.33712 12.5005 5 12.5H6.5V11C6.50132 9.80693 6.97585 8.66311 7.81948 7.81948C8.66311 6.97585 9.80693 6.50132 11 6.5ZM5 18.5H6.5V13.5H5C4.60234 13.5005 4.22111 13.6587 3.93992 13.9399C3.65873 14.2211 3.50053 14.6023 3.5 15V17C3.50053 17.3977 3.65873 17.7789 3.93992 18.0601C4.22111 18.3413 4.60234 18.4995 5 18.5ZM27.474 23.474C28.13 22.8177 28.499 21.928 28.5 21V11C28.4987 10.0721 28.1295 9.18268 27.4734 8.52659C26.8173 7.8705 25.9279 7.50132 25 7.5H11C10.0721 7.50106 9.18244 7.87015 8.5263 8.5263C7.87015 9.18244 7.50106 10.0721 7.5 11V21C7.50106 21.9279 7.87015 22.8176 8.5263 23.4737C9.18244 24.1299 10.0721 24.4989 11 24.5H25C25.928 24.4991 26.8177 24.1301 27.474 23.474Z" fill="#0F0F0F"/>
</svg>

<svg width="32" height="32" viewBox="0 0 32 32" fill="none" xmlns="http://www.w3.org/2000/svg"><path d="M18 10.513a.5.5 0 0 0-.5.5v10a.5.5 0 1 0 1 0v-10a.5.5 0 0 0-.5-.5zM22.808 10.55a.5.5 0 0 1 .692.463v10a.5.5 0 0 1-1 0v-10a.499.499 0 0 1 .308-.462z" fill="#0F0F0F"/><path fill-rule="evenodd" clip-rule="evenodd" d="M11 6.5h14a4.505 4.505 0 0 1 4.5 4.5v10a4.505 4.505 0 0 1-4.5 4.5H11A4.505 4.505 0 0 1 6.5 21v-1.5H5A2.502 2.502 0 0 1 2.5 17v-2A2.502 2.502 0 0 1 5 12.5h1.5V11A4.505 4.505 0 0 1 11 6.5zm-6 12h1.5v-5H5A1.502 1.502 0 0 0 3.5 15v2A1.502 1.502 0 0 0 5 18.5zm22.474 4.974A3.505 3.505 0 0 0 28.5 21V11A3.505 3.505 0 0 0 25 7.5H11A3.504 3.504 0 0 0 7.5 11v10a3.504 3.504 0 0 0 3.5 3.5h14a3.504 3.504 0 0 0 2.474-1.026z" fill="#0F0F0F"/></svg>
